X:1
T:Polska efter Jon Andersson
S:Svenska Låtar Värmland nummer 176
R:Finnskogspols
O:Aspberget, Norra Finnskoga, Värmland
N:Se även +, +, + och +, samt andra ABC-uppteckningar av Henrik Norbeck och John Chambers
M:3/4
L:1/8
K:Dm
(af)|:dd ^cA cd|e2 fa gb| af ed (3^c=Bc|dA FD af|
dd ^cA cd|e2 fa gb| af ed (3^c=Bc|1 d4  af:|2 d4 !trill!a2|]
|:(3fga (3fga (3fga|b4 !trill!g2|(3efg (3efg (3efg|a4 (af)|
dd ^cA cd|e2 fa gb| af ed (3^c=Bc|1 d4  !trill!a2:|2 d4|]

